assets/img/fullscreen.svg

<svg xmlns="http://www.w3.org/2000/svg" viewBox="0 0 24 24"><path d="M6.426 10.668l-3.547-3.547-2.879 2.879v-10h10l-2.879 2.879 3.547 3.547-4.242 4.242zm11.148 2.664l3.547 3.547 2.879-2.879v10h-10l2.879-2.879-3.547-3.547 4.242-4.242zm-6.906 4.242l-3.547 3.547 2.879 2.879h-10v-10l2.879 2.879 3.547-3.547 4.242 4.242zm2.664-11.148l3.547-3.547-2.879-2.879h10v10l-2.879-2.879-3.547 3.547-4.242-4.242z"/></svg>

<svg xmlns="http://www.w3.org/2000/svg" viewBox="0 0 24 24"><path d="M6.426 10.668L2.879 7.121 0 10V0h10L7.121 2.879l3.547 3.547-4.242 4.242zm11.148 2.664l3.547 3.547L24 14v10H14l2.879-2.879-3.547-3.547 4.242-4.242zm-6.906 4.242l-3.547 3.547L10 24H0V14l2.879 2.879 3.547-3.547 4.242 4.242zm2.664-11.148l3.547-3.547L14 0h10v10l-2.879-2.879-3.547 3.547-4.242-4.242z"/></svg>
